X:712
T:Anglais efter Per Nilsson Dahlberg
T:(SvL Skåne nr. 172)
S:efter Per Nilsson Dahlberg
S:Svenska Låtar Skåne
B:Svenska Låtar Skåne
R:Anglais
Z:Patrik Månsson, 2008-10-23
O:Nymö, Skåne
M:2/4
L:1/16
K:Bb
|: .F(BA).B b(BA).B | .d(BA).B .b(BA).B | .F(BA).B .b(BA).B | .e(cA)c B2 z2 :|
|: g2(3bbb b2a2 | !trill!g2f2 e2d2 | !trill!c2B2 A2g2 | .f(ed)c B2 z2 :|
(:musicend:)
En variant av melodien har upptecknats som brännvinspolska i Stora Herrestad. Jfr Nils Andersson, Skånska Melodier, n:r 66. (SvL)

(:music:)
